X:429
T:Polonäs i Dm efter Johan Eric Blomgren
R:Slängpolska
B:http://www.smus.se/earkiv/fmk/browselarge.php?lang=sw&katalogid=Ma+13a&bildnr=00157
S:efter Johan Eric Blomgren
Z:Nils L
N:Återställningstecken saknas i originalet.
M:3/4
L:1/16
K:Dm
A2d2 A2de f2d2 | A2^c2 A2cd e2c2 | A2d2 A2de f2d2 | ed^c=B B4 A4 ::
a4 fdfa bagf | g4 eceg agfe | a4 fdfa bagf | g4 eceg agfe |
G2BG F2AF E2g2 | fed^c d4 D4 :|

